src/assets/image/icons/gExpertise.svg

<svg width="62" height="62" viewBox="0 0 62 62" fill="none" xmlns="http://www.w3.org/2000/svg">
<g clip-path="url(#clip0_43_2144)">
<path d="M5.673 49.8499L3.77134 53.0526L8.94738 58.2287L12.1501 56.327C12.9909 56.7707 13.8773 57.1369 14.7948 57.4198L15.716 61.0312H23.0349L23.9552 57.4188C24.8727 57.1359 25.7591 56.7697 26.5999 56.326L29.8026 58.2277L34.9787 53.0517L33.077 49.849C33.5207 49.0081 33.8869 48.1217 34.1698 47.2043L37.7812 46.284V38.9651L34.1688 38.0448C33.8859 37.1273 33.5197 36.2409 33.076 35.4001L34.9777 32.1974L29.8017 27.0213L26.599 28.923C25.7581 28.4793 24.8717 28.1131 23.9543 27.8302L23.034 24.2188H15.7151L14.7948 27.8312C13.8773 28.1141 12.9909 28.4803 12.1501 28.924L8.94738 27.0223L3.77134 32.1983L5.673 35.401C5.22931 36.2419 4.86313 37.1283 4.58025 38.0457L0.96875 38.966V46.2849L4.58122 47.2052C4.86409 48.1227 5.22931 49.0091 5.673 49.8499ZM2.90625 40.4715L6.14575 39.6451L6.293 39.0988C6.59912 37.9585 7.04862 36.8706 7.62891 35.866L7.91178 35.3749L6.20678 32.5016L9.25253 29.4558L12.1258 31.1608L12.617 30.8779C13.6216 30.2977 14.7095 29.8491 15.8497 29.542L16.3961 29.3948L17.2215 26.1562H21.5276L22.3539 29.3958L22.9003 29.543C24.0405 29.8491 25.1284 30.2986 26.133 30.8789L26.6242 31.1618L29.4975 29.4568L32.5432 32.5025L30.8382 35.3758L31.1211 35.867C31.7014 36.8716 32.1499 37.9595 32.457 39.0997L32.6042 39.6461L35.8438 40.4715V44.7776L32.6042 45.6039L32.457 46.1503C32.1509 47.2905 31.7014 48.3784 31.1211 49.383L30.8382 49.8742L32.5432 52.7475L29.4975 55.7932L26.6242 54.0882L26.133 54.3711C25.1284 54.9514 24.0405 55.3999 22.9003 55.707L22.3539 55.8542L21.5285 59.0938H17.2224L16.3961 55.8542L15.8497 55.707C14.7095 55.4009 13.6216 54.9514 12.617 54.3711L12.1258 54.0882L9.25253 55.7932L6.20678 52.7475L7.91178 49.8742L7.62891 49.383C7.04862 48.3784 6.59912 47.2905 6.293 46.1503L6.14575 45.6039L2.90625 44.7785V40.4715ZM19.375 54.25C25.7852 54.25 31 49.0352 31 42.625C31 36.2148 25.7852 31 19.375 31C12.9648 31 7.75 36.2148 7.75 42.625C7.75 49.0352 12.9648 54.25 19.375 54.25ZM19.375 32.9375C24.7167 32.9375 29.0625 37.2833 29.0625 42.625C29.0625 47.9667 24.7167 52.3125 19.375 52.3125C14.0333 52.3125 9.6875 47.9667 9.6875 42.625C9.6875 37.2833 14.0333 32.9375 19.375 32.9375ZM19.375 48.4375C22.5806 48.4375 25.1875 45.8306 25.1875 42.625C25.1875 39.4194 22.5806 36.8125 19.375 36.8125C16.1694 36.8125 13.5625 39.4194 13.5625 42.625C13.5625 45.8306 16.1694 48.4375 19.375 48.4375ZM19.375 38.75C21.5121 38.75 23.25 40.4879 23.25 42.625C23.25 44.7621 21.5121 46.5 19.375 46.5C17.2379 46.5 15.5 44.7621 15.5 42.625C15.5 40.4879 17.2379 38.75 19.375 38.75ZM58.125 8.71875H34.875C33.2727 8.71875 31.9688 10.0227 31.9688 11.625V25.1875C31.9688 26.7898 33.2727 28.0938 34.875 28.0938H36.8125V32.5674L45.7599 28.0938H58.125C59.7273 28.0938 61.0312 26.7898 61.0312 25.1875V11.625C61.0312 10.0227 59.7273 8.71875 58.125 8.71875ZM59.0938 25.1875C59.0938 25.7222 58.6598 26.1562 58.125 26.1562H45.3026L38.75 29.4326V26.1562H34.875C34.3402 26.1562 33.9062 25.7222 33.9062 25.1875V11.625C33.9062 11.0903 34.3402 10.6562 34.875 10.6562H58.125C58.6598 10.6562 59.0938 11.0903 59.0938 11.625V25.1875ZM3.875 18.4062H13.2942L19.375 22.0555V18.4062H27.125C28.7273 18.4062 30.0312 17.1023 30.0312 15.5V3.875C30.0312 2.27269 28.7273 0.96875 27.125 0.96875H3.875C2.27269 0.96875 0.96875 2.27269 0.96875 3.875V15.5C0.96875 17.1023 2.27269 18.4062 3.875 18.4062ZM2.90625 3.875C2.90625 3.34025 3.34025 2.90625 3.875 2.90625H27.125C27.6597 2.90625 28.0938 3.34025 28.0938 3.875V15.5C28.0938 16.0347 27.6597 16.4688 27.125 16.4688H17.4375V18.632L13.8308 16.4688H3.875C3.34025 16.4688 2.90625 16.0347 2.90625 15.5V3.875ZM55.2188 12.5938H57.1562V24.2188H37.7812V22.2812H39.7188V18.4062H41.6562V22.2812H43.5938V16.4688H45.5312V22.2812H47.4688V12.5938H49.4062V22.2812H51.3438V14.5312H53.2812V22.2812H55.2188V12.5938ZM7.75 12.5938C9.35231 12.5938 10.6562 11.2898 10.6562 9.6875C10.6562 8.08519 9.35231 6.78125 7.75 6.78125C6.14769 6.78125 4.84375 8.08519 4.84375 9.6875C4.84375 11.2898 6.14769 12.5938 7.75 12.5938ZM7.75 8.71875C8.28475 8.71875 8.71875 9.15275 8.71875 9.6875C8.71875 10.2222 8.28475 10.6562 7.75 10.6562C7.21525 10.6562 6.78125 10.2222 6.78125 9.6875C6.78125 9.15275 7.21525 8.71875 7.75 8.71875ZM15.5 12.5938C17.1023 12.5938 18.4062 11.2898 18.4062 9.6875C18.4062 8.08519 17.1023 6.78125 15.5 6.78125C13.8977 6.78125 12.5938 8.08519 12.5938 9.6875C12.5938 11.2898 13.8977 12.5938 15.5 12.5938ZM15.5 8.71875C16.0347 8.71875 16.4688 9.15275 16.4688 9.6875C16.4688 10.2222 16.0347 10.6562 15.5 10.6562C14.9653 10.6562 14.5312 10.2222 14.5312 9.6875C14.5312 9.15275 14.9653 8.71875 15.5 8.71875ZM23.25 12.5938C24.8523 12.5938 26.1562 11.2898 26.1562 9.6875C26.1562 8.08519 24.8523 6.78125 23.25 6.78125C21.6477 6.78125 20.3438 8.08519 20.3438 9.6875C20.3438 11.2898 21.6477 12.5938 23.25 12.5938ZM23.25 8.71875C23.7847 8.71875 24.2188 9.15275 24.2188 9.6875C24.2188 10.2222 23.7847 10.6562 23.25 10.6562C22.7153 10.6562 22.2812 10.2222 22.2812 9.6875C22.2812 9.15275 22.7153 8.71875 23.25 8.71875ZM50.375 39.7188C48.4801 39.7188 46.625 40.2264 44.9858 41.1912L39.1443 40.4976L41.1089 45.1283C40.1973 46.7325 39.7188 48.5353 39.7188 50.375C39.7188 56.2505 44.4995 61.0312 50.375 61.0312C56.2505 61.0312 61.0312 56.2505 61.0312 50.375C61.0312 44.4995 56.2505 39.7188 50.375 39.7188ZM44.9064 57.1562H55.8426C54.3459 58.3652 52.4443 59.0938 50.374 59.0938C48.3038 59.0938 46.4041 58.3652 44.9064 57.1562ZM49.0866 50.839C48.6681 50.4622 48.4375 49.9526 48.4375 49.4062V47.6334C48.4375 46.5281 49.26 45.5874 50.2694 45.5342C50.8003 45.5032 51.3195 45.693 51.709 46.0641C52.0974 46.4341 52.3125 46.9321 52.3125 47.4688V49.4062C52.3125 49.9526 52.0819 50.4622 51.6634 50.839L51.3438 51.1277V52.9112L54.0214 54.25C54.4525 54.4651 54.7877 54.807 54.993 55.2188H45.7579C45.9633 54.807 46.2995 54.4651 46.7296 54.25L49.4062 52.9112V51.1277L49.0866 50.839ZM57.134 55.8727C57.0255 54.437 56.1914 53.1689 54.8874 52.5169L53.4217 51.7845C53.9536 51.1064 54.25 50.2684 54.25 49.4062V47.4688C54.25 46.4109 53.8102 45.3869 53.0429 44.6584C52.2641 43.9202 51.2566 43.5598 50.1677 43.5986C48.111 43.7061 46.5 45.4789 46.5 47.6334V49.4062C46.5 50.2684 46.7964 51.1064 47.3273 51.7845L45.8616 52.5169C44.5577 53.1689 43.7236 54.437 43.6151 55.8727C42.3925 54.3711 41.6562 52.4578 41.6562 50.375C41.6562 48.732 42.1242 47.1229 43.0106 45.7221L43.2818 45.2929L42.2307 42.8149L45.4305 43.1956L45.7221 43.0115C47.1229 42.1242 48.732 41.6562 50.375 41.6562C55.1829 41.6562 59.0938 45.5671 59.0938 50.375C59.0938 52.4578 58.3575 54.3711 57.134 55.8727Z" fill="url(#paint0_linear_43_2144)"/>
</g>
<defs>
<linearGradient id="paint0_linear_43_2144" x1="31" y1="61.0312" x2="31" y2="0.96875" gradientUnits="userSpaceOnUse">
<stop stop-color="#6582FD"/>
<stop offset="1" stop-color="#E13E91"/>
</linearGradient>
<clipPath id="clip0_43_2144">
<rect width="62" height="62" fill="white"/>
</clipPath>
</defs>
</svg>

<svg xmlns="http://www.w3.org/2000/svg" width="62" height="62" fill="none"><g clip-path="url(#a)"><path fill="url(#b)" d="m5.673 49.85-1.902 3.203 5.176 5.176 3.203-1.902c.84.444 1.727.81 2.645 1.093l.921 3.611h7.319l.92-3.612c.918-.283 1.804-.65 2.645-1.093l3.203 1.902 5.176-5.176-1.902-3.203c.444-.84.81-1.727 1.093-2.645l3.611-.92v-7.319l-3.612-.92a15.4 15.4 0 0 0-1.093-2.645l1.902-3.203-5.176-5.176-3.203 1.902c-.84-.444-1.727-.81-2.645-1.093l-.92-3.611h-7.319l-.92 3.612c-.918.283-1.804.65-2.645 1.093l-3.203-1.902-5.176 5.176 1.902 3.203c-.444.84-.81 1.727-1.093 2.645l-3.611.92v7.319l3.612.92a15.4 15.4 0 0 0 1.092 2.645m-2.767-9.38 3.24-.826.147-.546a13.4 13.4 0 0 1 1.336-3.233l.283-.491-1.705-2.873 3.046-3.046 2.873 1.705.491-.283a13.5 13.5 0 0 1 3.233-1.336l.546-.147.825-3.239h4.307l.826 3.24.546.147a13.4 13.4 0 0 1 3.233 1.336l.491.283 2.874-1.705 3.045 3.045-1.705 2.874.283.491a13.5 13.5 0 0 1 1.336 3.233l.147.546 3.24.825v4.307l-3.24.826-.147.546a13.4 13.4 0 0 1-1.336 3.233l-.283.491 1.705 2.874-3.046 3.045-2.873-1.705-.491.283a13.5 13.5 0 0 1-3.233 1.336l-.546.147-.825 3.24h-4.307l-.826-3.24-.546-.147a13.4 13.4 0 0 1-3.233-1.336l-.491-.283-2.873 1.705-3.046-3.045 1.705-2.874-.283-.491a13.4 13.4 0 0 1-1.336-3.233l-.147-.546-3.24-.825zm16.469 13.78C25.785 54.25 31 49.035 31 42.625S25.785 31 19.375 31 7.75 36.215 7.75 42.625 12.965 54.25 19.375 54.25m0-21.312c5.342 0 9.688 4.345 9.688 9.687s-4.346 9.688-9.688 9.688-9.687-4.346-9.687-9.688 4.345-9.687 9.687-9.687m0 15.5a5.82 5.82 0 0 0 5.813-5.813 5.82 5.82 0 0 0-5.813-5.812 5.82 5.82 0 0 0-5.812 5.812 5.82 5.82 0 0 0 5.812 5.813m0-9.688a3.88 3.88 0 0 1 3.875 3.875 3.88 3.88 0 0 1-3.875 3.875 3.88 3.88 0 0 1-3.875-3.875 3.88 3.88 0 0 1 3.875-3.875m38.75-30.031h-23.25a2.91 2.91 0 0 0-2.906 2.906v13.563a2.91 2.91 0 0 0 2.906 2.906h1.938v4.473l8.947-4.473h12.365a2.91 2.91 0 0 0 2.906-2.907V11.626a2.91 2.91 0 0 0-2.906-2.906m.969 16.469a.97.97 0 0 1-.969.968H45.303l-6.553 3.277v-3.277h-3.875a.97.97 0 0 1-.969-.968V11.625a.97.97 0 0 1 .969-.969h23.25a.97.97 0 0 1 .969.969zM3.875 18.406h9.42l6.08 3.65v-3.65h7.75a2.91 2.91 0 0 0 2.906-2.906V3.875A2.91 2.91 0 0 0 27.125.969H3.875A2.91 2.91 0 0 0 .969 3.875V15.5a2.91 2.91 0 0 0 2.906 2.906M2.906 3.875a.97.97 0 0 1 .969-.969h23.25a.97.97 0 0 1 .969.969V15.5a.97.97 0 0 1-.969.969h-9.687v2.163l-3.607-2.163H3.875a.97.97 0 0 1-.969-.969zm52.313 8.719h1.937v11.625H37.781V22.28h1.938v-3.875h1.937v3.875h1.938v-5.81h1.937v5.812h1.938v-9.687h1.937v9.687h1.938v-7.75h1.937v7.75h1.938zm-47.469 0a2.91 2.91 0 0 0 2.906-2.906A2.91 2.91 0 0 0 7.75 6.78a2.91 2.91 0 0 0-2.906 2.907 2.91 2.91 0 0 0 2.906 2.906m0-3.875a.97.97 0 1 1 0 1.938.97.97 0 0 1 0-1.938m7.75 3.875a2.91 2.91 0 0 0 2.906-2.906A2.91 2.91 0 0 0 15.5 6.78a2.91 2.91 0 0 0-2.906 2.907 2.91 2.91 0 0 0 2.906 2.906m0-3.875a.97.97 0 1 1 0 1.938.97.97 0 0 1 0-1.938m7.75 3.875a2.91 2.91 0 0 0 2.906-2.906A2.91 2.91 0 0 0 23.25 6.78a2.91 2.91 0 0 0-2.906 2.907 2.91 2.91 0 0 0 2.906 2.906m0-3.875a.97.97 0 1 1 0 1.938.97.97 0 0 1 0-1.938m27.125 31c-1.895 0-3.75.507-5.39 1.472l-5.84-.693 1.964 4.63a10.6 10.6 0 0 0-1.39 5.247c0 5.876 4.78 10.656 10.656 10.656s10.656-4.78 10.656-10.656-4.78-10.656-10.656-10.656m-5.469 17.437h10.937a8.68 8.68 0 0 1-5.469 1.938c-2.07 0-3.97-.729-5.468-1.938m4.18-6.317a1.9 1.9 0 0 1-.648-1.433v-1.773c0-1.105.822-2.046 1.831-2.099a1.92 1.92 0 0 1 1.44.53c.388.37.603.868.603 1.405v1.937a1.9 1.9 0 0 1-.649 1.433l-.32.289v1.783l2.678 1.339c.431.215.767.557.972.969h-9.235c.205-.412.541-.754.972-.969l2.676-1.339v-1.783zm8.048 5.034a4.07 4.07 0 0 0-2.247-3.356l-1.465-.733a3.86 3.86 0 0 0 .828-2.378V47.47a3.9 3.9 0 0 0-1.207-2.81c-.779-.739-1.786-1.1-2.875-1.06-2.057.107-3.668 1.88-3.668 4.034v1.773c0 .862.296 1.7.827 2.379l-1.465.732a4.07 4.07 0 0 0-2.247 3.356 8.68 8.68 0 0 1-.604-10.15l.27-.43-1.05-2.478 3.2.38.291-.184a8.7 8.7 0 0 1 4.653-1.355c4.808 0 8.719 3.911 8.719 8.719a8.68 8.68 0 0 1-1.96 5.498"/></g><defs><linearGradient id="b" x1="31" x2="31" y1="61.031" y2=".969" gradientUnits="userSpaceOnUse"><stop stop-color="#6582FD"/><stop offset="1" stop-color="#E13E91"/></linearGradient><clipPath id="a"><path fill="#fff" d="M0 0h62v62H0z"/></clipPath></defs></svg>
